svg/fluentui-system-icons/ic_fluent_book_toolbox_20_filled.svg

<svg width="20" height="20" viewBox="0 0 20 20" fill="none" xmlns="http://www.w3.org/2000/svg">
<path d="M12 3V2.5C12 1.67157 12.6716 1 13.5 1H15.5C16.3284 1 17 1.67157 17 2.5V3H17.5C18.3284 3 19 3.67157 19 4.5V6H17V5.5C17 5.22386 16.7761 5 16.5 5C16.2239 5 16 5.22386 16 5.5V6H13V5.5C13 5.22386 12.7761 5 12.5 5C12.2239 5 12 5.22386 12 5.5V6H10V4.5C10 3.67157 10.6716 3 11.5 3H12ZM13 2.5V3H16V2.5C16 2.22386 15.7761 2 15.5 2H13.5C13.2239 2 13 2.22386 13 2.5ZM17 7H19V8.5C19 9.32843 18.3284 10 17.5 10H11.5C10.6716 10 10 9.32843 10 8.5V7H12V7.5C12 7.77614 12.2239 8 12.5 8C12.7761 8 13 7.77614 13 7.5V7H16V7.5C16 7.77614 16.2239 8 16.5 8C16.7761 8 17 7.77614 17 7.5V7ZM11.0419 2.04188C11.0445 2.02788 11.0472 2.01392 11.05 2H6C4.89543 2 4 2.89543 4 4V16C4 17.1046 4.89543 18 6 18H15.5036C15.7797 18 16.0036 17.7762 16.0036 17.5C16.0036 17.2239 15.7797 17 15.5036 17H6C5.44815 17 5.0007 16.553 5 16.0013H15.5036C15.7797 16.0013 16.0036 15.7775 16.0036 15.5013V11H11.5C10.1193 11 9 9.88071 9 8.5V4.5C9 3.27577 9.87996 2.25706 11.0419 2.04188Z" fill="#212121"/>
</svg>

<svg xmlns="http://www.w3.org/2000/svg" width="20" height="20"><path d="M12 3v-.5A1.5 1.5 0 0 1 13.5 1h2A1.5 1.5 0 0 1 17 2.5V3h.5A1.5 1.5 0 0 1 19 4.5V6h-2v-.5a.5.5 0 0 0-1 0V6h-3v-.5a.5.5 0 0 0-1 0V6h-2V4.5A1.5 1.5 0 0 1 11.5 3h.5Zm1-.5V3h3v-.5a.5.5 0 0 0-.5-.5h-2a.5.5 0 0 0-.5.5ZM17 7h2v1.5a1.5 1.5 0 0 1-1.5 1.5h-6A1.5 1.5 0 0 1 10 8.5V7h2v.5a.5.5 0 0 0 1 0V7h3v.5a.5.5 0 0 0 1 0V7Zm-5.958-4.958L11.05 2H6a2 2 0 0 0-2 2v12a2 2 0 0 0 2 2h9.504a.5.5 0 1 0 0-1H6a1 1 0 0 1-1-.999h10.504a.5.5 0 0 0 .5-.5V11H11.5A2.5 2.5 0 0 1 9 8.5v-4a2.5 2.5 0 0 1 2.042-2.458Z"/></svg>
